contribs/icons/scalable.svg

<?xml version="1.0" encoding="UTF-8" standalone="no"?>
<!-- Created with Inkscape (http://www.inkscape.org/) -->

<svg
   width="192"
   height="192"
   viewBox="0 0 50.800001 50.800001"
   version="1.1"
   id="svg1"
   inkscape:version="1.3.2 (091e20ef0f, 2023-11-25)"
   sodipodi:docname="scalable.svg"
   inkscape:export-filename="scalable.png"
   inkscape:export-xdpi="96"
   inkscape:export-ydpi="96"
   xmlns:inkscape="http://www.inkscape.org/namespaces/inkscape"
   xmlns:sodipodi="http://sodipodi.sourceforge.net/DTD/sodipodi-0.dtd"
   xmlns="http://www.w3.org/2000/svg"
   xmlns:svg="http://www.w3.org/2000/svg">
  <sodipodi:namedview
     id="namedview1"
     pagecolor="#ffffff"
     bordercolor="#000000"
     borderopacity="0.25"
     inkscape:showpageshadow="2"
     inkscape:pageopacity="0.0"
     inkscape:pagecheckerboard="0"
     inkscape:deskcolor="#d1d1d1"
     inkscape:document-units="px"
     inkscape:zoom="5.9947916"
     inkscape:cx="-8.0069506"
     inkscape:cy="89.994788"
     inkscape:window-width="3440"
     inkscape:window-height="1360"
     inkscape:window-x="0"
     inkscape:window-y="0"
     inkscape:window-maximized="1"
     inkscape:current-layer="layer1"
     showguides="true" />
  <defs
     id="defs1">
    <inkscape:perspective
       sodipodi:type="inkscape:persp3d"
       inkscape:vp_x="10.82424 : 11.405761 : 1"
       inkscape:vp_y="0 : 1000 : 0"
       inkscape:vp_z="64.104796 : 8.096285 : 1"
       inkscape:persp3d-origin="38.704796 : -0.37038201 : 1"
       id="perspective6" />
    <linearGradient
       id="swatch8"
       inkscape:swatch="solid">
      <stop
         style="stop-color:#ffffff;stop-opacity:1;"
         offset="0"
         id="stop8" />
    </linearGradient>
  </defs>
  <g
     inkscape:label="Layer 1"
     inkscape:groupmode="layer"
     id="layer1"
     style="display:inline">
    <g
       id="g8"
       style="fill:#4dd2c0;fill-opacity:1;stroke-width:0.711902"
       transform="matrix(1.4046876,0,0,1.4046876,-10.279063,-10.279063)">
      <g
         id="g7"
         style="fill:#4dd2c0;fill-opacity:1;stroke-width:0.711902">
        <g
           id="g5"
           style="fill:#4dd2c0;fill-opacity:1;stroke-width:0.711902">
          <g
             id="g4"
             style="fill:#4dd2c0;fill-opacity:1;stroke-width:0.711902">
            <path
               id="rect1"
               style="font-variation-settings:'wght' 400;fill:#4dd2c0;fill-opacity:1;stroke-width:0.188357"
               d="m 26.580807,12.196672 14.131954,14.1087 V 13.303064 h -1.106392 v -1.106392 z m -16.493567,12.0835 v 13.216765 h 1.106392 v 1.106392 h 13.240019 z" />
          </g>
          <path
             id="rect3"
             style="font-variation-settings:'wght' 400;fill:#4dd2c0;fill-opacity:1;stroke-width:0.188358"
             d="m 0.8756414,18.161779 -2.4031099,2.383136 -2.3947398,-2.414618 -2.1157617,2.098175 -1.67e-4,28.372113 5.0371609,5.078973 2.4031099,-2.383135 2.3947398,2.414618 2.1157617,-2.098176 1.67e-4,-28.372112 z"
             transform="matrix(0.70245168,-0.71173143,0.7083393,0.70587211,0,0)" />
        </g>
        <circle
           style="font-variation-settings:'wght' 400;fill:#4dd2c0;fill-opacity:1;stroke-width:0.188357"
           id="path5-3"
           cx="11.120762"
           cy="37.569809"
           r="1.0335213" />
        <circle
           style="font-variation-settings:'wght' 400;fill:#4dd2c0;fill-opacity:1;stroke-width:0.188357"
           id="path5-3-8"
           cx="39.679241"
           cy="13.230193"
           r="1.0335213" />
      </g>
      <circle
         style="font-variation-settings:'wght' 400;fill:#4dd2c0;fill-opacity:1;stroke-width:0.188357"
         id="path5"
         cx="13.479771"
         cy="15.589203"
         r="3.3925312" />
      <circle
         style="font-variation-settings:'wght' 400;fill:#4dd2c0;fill-opacity:1;stroke-width:0.188357"
         id="path5-4"
         cx="37.320229"
         cy="35.210796"
         r="3.3925312" />
    </g>
  </g>
</svg>

<?xml version="1.0" encoding="UTF-8" standalone="no"?>
<!-- Created with Inkscape (http://www.inkscape.org/) -->

<svg
   width="192"
   height="192"
   viewBox="0 0 50.800001 50.800001"
   version="1.1"
   id="svg1"
   inkscape:version="1.3.2 (091e20ef0f, 2023-11-25)"
   sodipodi:docname="scalable.svg"
   inkscape:export-filename="scalable.png"
   inkscape:export-xdpi="96"
   inkscape:export-ydpi="96"
   xmlns:inkscape="http://www.inkscape.org/namespaces/inkscape"
   xmlns:sodipodi="http://sodipodi.sourceforge.net/DTD/sodipodi-0.dtd"
   xmlns="http://www.w3.org/2000/svg"
   xmlns:svg="http://www.w3.org/2000/svg">
  <sodipodi:namedview
     id="namedview1"
     pagecolor="#ffffff"
     bordercolor="#000000"
     borderopacity="0.25"
     inkscape:showpageshadow="2"
     inkscape:pageopacity="0.0"
     inkscape:pagecheckerboard="0"
     inkscape:deskcolor="#d1d1d1"
     inkscape:document-units="px"
     inkscape:zoom="5.9947916"
     inkscape:cx="-8.0069506"
     inkscape:cy="89.994788"
     inkscape:window-width="3440"
     inkscape:window-height="1360"
     inkscape:window-x="0"
     inkscape:window-y="0"
     inkscape:window-maximized="1"
     inkscape:current-layer="layer1"
     showguides="true" />
  <defs
     id="defs1">
    <linearGradient
       id="swatch8"
       inkscape:swatch="solid">
      <stop
         style="stop-color:#ffffff;stop-opacity:1;"
         offset="0"
         id="stop8" />
    </linearGradient>
  </defs>
  <g
     inkscape:label="Layer 1"
     inkscape:groupmode="layer"
     id="layer1"
     style="display:inline">
    <g
       id="g8"
       style="fill:#9abeff;fill-opacity:1">
      <g
         id="g7"
         style="fill:#9abeff;fill-opacity:1">
        <g
           id="g5"
           style="fill:#9abeff;fill-opacity:1">
          <g
             id="g4"
             style="fill:#9abeff;fill-opacity:1">
            <path
               id="rect1"
               style="font-variation-settings:'wght' 400;fill:#9abeff;fill-opacity:1;stroke-width:0.264583"
               d="M 26.580807 12.196672 L 40.712761 26.305372 L 40.712761 13.303064 L 39.606369 13.303064 L 39.606369 12.196672 L 26.580807 12.196672 z M 10.08724 24.280172 L 10.08724 37.496937 L 11.193632 37.496937 L 11.193632 38.603329 L 24.433651 38.603329 L 10.08724 24.280172 z " />
          </g>
          <path
             id="rect3"
             style="font-variation-settings:'wght' 400;fill:#9abeff;fill-opacity:1;stroke-width:0.264584"
             d="m 0.8756414,18.161779 -2.4031099,2.383136 -2.3947398,-2.414618 -2.1157617,2.098175 -1.67e-4,28.372113 5.0371609,5.078973 2.4031099,-2.383135 2.3947398,2.414618 2.1157617,-2.098176 1.67e-4,-28.372112 z"
             transform="matrix(0.70245168,-0.71173143,0.7083393,0.70587211,0,0)" />
        </g>
        <circle
           style="font-variation-settings:'wght' 400;fill:#9abeff;fill-opacity:1;stroke-width:0.264583"
           id="path5-3"
           cx="11.120762"
           cy="37.569809"
           r="1.0335213" />
        <circle
           style="font-variation-settings:'wght' 400;fill:#9abeff;fill-opacity:1;stroke-width:0.264583"
           id="path5-3-8"
           cx="39.679241"
           cy="13.230193"
           r="1.0335213" />
      </g>
      <circle
         style="font-variation-settings:'wght' 400;fill:#9abeff;fill-opacity:1;stroke-width:0.264583"
         id="path5"
         cx="13.479771"
         cy="15.589203"
         r="3.3925312" />
      <circle
         style="font-variation-settings:'wght' 400;fill:#9abeff;fill-opacity:1;stroke-width:0.264583"
         id="path5-4"
         cx="37.320229"
         cy="35.210796"
         r="3.3925312" />
    </g>
  </g>
</svg>
